icons/1_Primary/Spaceship.svg

<svg width="1024" height="1024" fill="none" xmlns="http://www.w3.org/2000/svg"><g clip-path="url(#a)"><path d="M512 1024c282.77 0 512-229.23 512-512S794.77 0 512 0 0 229.23 0 512s229.23 512 512 512Z" fill="#728DBE"/><path d="M512 270.09c22.63 0 42.38 12.33 52.89 30.6 50.44 87.19 148.49 256.72 198.88 343.75l.12.23.05.1.09.13.55 1.02c.26.4.44.85.67 1.27.27.42.45.89.67 1.32.04.09.1.17.13.28.17.35.35.71.51 1.07.13.29.57 1.32.71 1.6.16.41.32.8.48 1.2.17.43.34.85.48 1.26.04.1.08.21.12.3.14.41.29.83.43 1.24.01.03.01.05.03.09.13.39.26.79.38 1.19.04.1.05.18.1.28.13.43.25.85.38 1.27l.04.17c.12.48.27.96.38 1.44.12.42.22.85.32 1.27l.04.25c.09.37.17.76.26 1.14.01.09.03.18.04.28.09.43.17.86.26 1.3.05.36.22 1.31.28 1.67.12.92.27 1.9.37 2.83v.21c.05.43.1.89.13 1.35.01.09.01.18.03.3.03.42.05.86.08 1.27.01.04.01.09.01.13.03.45.04.9.05 1.39v1.02h.01c1.03 40.8-40.56 71.4-79.23 58.69l-171.19-56.46c-5.95-2.03-13.18-2.03-19.14 0L331.24 733l-3.52.99c-37.65 9.88-76.29-19.98-75.72-58.99v-1.72c.03-.48.04-.93.08-1.39.03-.54.05-.98.09-1.4 0-.12.01-.22.03-.3.03-.47.08-.92.12-1.35v-.21c.16-1.41.36-2.82.61-4.23.08-.54.18-1.04.29-1.57.01-.09.04-.18.05-.28.09-.38.16-.77.25-1.14.12-.5.24-1.01.37-1.52l.08-.29c.12-.38.21-.77.32-1.15l.04-.17c.12-.42.25-.83.38-1.27.16-.49.3-1 .48-1.47.01-.03.01-.05.03-.09.13-.41.29-.83.43-1.24l.1-.3.48-1.24c.17-.42.32-.81.5-1.22.04-.09.09-.17.13-.28.16-.39.34-.8.51-1.19l.08-.13c.16-.37.34-.73.5-1.07.04-.1.09-.18.13-.28l.63-1.25c.23-.45.47-.89.71-1.33l.28-.51c50.56-87.47 148.77-257.18 199.41-344.73 10.51-18.28 30.27-30.6 52.9-30.6H512v.01Z" fill="#fff"/></g><defs><clipPath id="a"><path fill="#fff" d="M0 0h1024v1024H0z"/></clipPath></defs></svg>

<svg width="1024" height="1024" viewBox="0 0 1024 1024" fill="none" xmlns="http://www.w3.org/2000/svg">
<g clip-path="url(#clip0_2_3519)">
<path d="M512 1024C794.77 1024 1024 794.77 1024 512C1024 229.23 794.77 0 512 0C229.23 0 0 229.23 0 512C0 794.77 229.23 1024 512 1024Z" fill="#728DBE"/>
<path d="M512 270.09C534.63 270.09 554.38 282.42 564.89 300.69C615.33 387.88 713.38 557.41 763.77 644.44L763.89 644.67L763.94 644.77L764.03 644.9L764.58 645.92C764.84 646.32 765.02 646.77 765.25 647.19C765.52 647.61 765.7 648.08 765.92 648.51C765.96 648.6 766.02 648.68 766.05 648.79C766.22 649.14 766.4 649.5 766.56 649.86C766.69 650.15 767.13 651.18 767.27 651.46C767.43 651.87 767.59 652.26 767.75 652.66C767.92 653.09 768.09 653.51 768.23 653.92C768.27 654.02 768.31 654.13 768.35 654.22C768.49 654.63 768.64 655.05 768.78 655.46C768.79 655.49 768.79 655.51 768.81 655.55C768.94 655.94 769.07 656.34 769.19 656.74C769.23 656.84 769.24 656.92 769.29 657.02C769.42 657.45 769.54 657.87 769.67 658.29L769.71 658.46C769.83 658.94 769.98 659.42 770.09 659.9C770.21 660.32 770.31 660.75 770.41 661.17L770.45 661.42C770.54 661.79 770.62 662.18 770.71 662.56C770.72 662.65 770.74 662.74 770.75 662.84C770.84 663.27 770.92 663.7 771.01 664.14C771.06 664.5 771.23 665.45 771.29 665.81C771.41 666.73 771.56 667.71 771.66 668.64V668.85C771.71 669.28 771.76 669.74 771.79 670.2C771.8 670.29 771.8 670.38 771.82 670.5C771.85 670.92 771.87 671.36 771.9 671.77C771.91 671.81 771.91 671.86 771.91 671.9C771.94 672.35 771.95 672.8 771.96 673.29V674.31H771.97C773 715.11 731.41 745.71 692.74 733L521.55 676.54C515.6 674.51 508.37 674.51 502.41 676.54L331.24 733L327.72 733.99C290.07 743.87 251.43 714.01 252 675V673.28C252.03 672.8 252.04 672.35 252.08 671.89C252.11 671.35 252.13 670.91 252.17 670.49C252.17 670.37 252.18 670.27 252.2 670.19C252.23 669.72 252.28 669.27 252.32 668.84V668.63C252.48 667.22 252.68 665.81 252.93 664.4C253.01 663.86 253.11 663.36 253.22 662.83C253.23 662.74 253.26 662.65 253.27 662.55C253.36 662.17 253.43 661.78 253.52 661.41C253.64 660.91 253.76 660.4 253.89 659.89L253.97 659.6C254.09 659.22 254.18 658.83 254.29 658.45L254.33 658.28C254.45 657.86 254.58 657.45 254.71 657.01C254.87 656.52 255.01 656.01 255.19 655.54C255.2 655.51 255.2 655.49 255.22 655.45C255.35 655.04 255.51 654.62 255.65 654.21L255.75 653.91L256.23 652.67C256.4 652.25 256.55 651.86 256.73 651.45C256.77 651.36 256.82 651.28 256.86 651.17C257.02 650.78 257.2 650.37 257.37 649.98L257.45 649.85C257.61 649.48 257.79 649.12 257.95 648.78C257.99 648.68 258.04 648.6 258.08 648.5L258.71 647.25C258.94 646.8 259.18 646.36 259.42 645.92L259.7 645.41C310.26 557.94 408.47 388.23 459.11 300.68C469.62 282.4 489.38 270.08 512.01 270.08H512V270.09Z" fill="white"/>
</g>
<defs>
<clipPath id="clip0_2_3519">
<rect width="1024" height="1024" fill="white"/>
</clipPath>
</defs>
</svg>
